assets/icons/settinglight.svg

<svg width="18" height="18" viewBox="0 0 18 18" fill="none" xmlns="http://www.w3.org/2000/svg">
<path d="M2.25 6.83203V11.1595C2.25 12.7495 2.25 12.7495 3.75 13.762L7.875 16.147C8.4975 16.507 9.51 16.507 10.125 16.147L14.25 13.762C15.75 12.7495 15.75 12.7495 15.75 11.167V6.83203C15.75 5.24953 15.75 5.24953 14.25 4.23703L10.125 1.85203C9.51 1.49203 8.4975 1.49203 7.875 1.85203L3.75 4.23703C2.25 5.24953 2.25 5.24953 2.25 6.83203Z" stroke="#424A55" stroke-width="1.5" stroke-linecap="round" stroke-linejoin="round"/>
<path d="M9 11.25C10.2426 11.25 11.25 10.2426 11.25 9C11.25 7.75736 10.2426 6.75 9 6.75C7.75736 6.75 6.75 7.75736 6.75 9C6.75 10.2426 7.75736 11.25 9 11.25Z" stroke="#424A55" stroke-width="1.5" stroke-linecap="round" stroke-linejoin="round"/>
</svg>

<svg width="18" height="18" viewBox="0 0 18 18" fill="none" xmlns="http://www.w3.org/2000/svg"><path d="M2.25 6.83v4.33c0 1.59 0 1.59 1.5 2.6l4.13 2.39c.62.36 1.63.36 2.25 0l4.12-2.39c1.5-1.01 1.5-1.01 1.5-2.6V6.84c0-1.58 0-1.58-1.5-2.6l-4.12-2.38a2.5 2.5 0 0 0-2.26 0L3.76 4.24c-1.5 1.01-1.5 1.01-1.5 2.6" stroke="#424A55" stroke-width="1.5" stroke-linecap="round" stroke-linejoin="round"/><path d="M9 11.25a2.25 2.25 0 1 0 0-4.5 2.25 2.25 0 0 0 0 4.5" stroke="#424A55" stroke-width="1.5" stroke-linecap="round" stroke-linejoin="round"/></svg>
